packages/docs/public/landing/icon-open-source.svg

<svg width="104" height="107" viewBox="0 0 104 107" fill="none" xmlns="http://www.w3.org/2000/svg">
<g filter="url(#filter0_f)">
<circle cx="52" cy="55" r="36" fill="#8EAEDE" fill-opacity="0.3"/>
</g>
<circle cx="52" cy="43" r="43" fill="white"/>
<path fill-rule="evenodd" clip-rule="evenodd" d="M43.5666 66.1043C34.5285 62.7285 28.0928 54.0162 28.0928 43.8008C28.0928 30.656 38.7487 20 51.8936 20C65.0384 20 75.6944 30.656 75.6944 43.8008C75.6944 54.0802 69.1778 62.8375 60.0505 66.1671L54.6997 51.9419C58.0764 50.7782 60.5024 47.5728 60.5024 43.8008C60.5024 39.0463 56.6481 35.192 51.8936 35.192C47.1391 35.192 43.2848 39.0463 43.2848 43.8008C43.2848 47.5252 45.6499 50.6972 48.9601 51.8969L43.5666 66.1043Z" fill="#89DD7C"/>
<path d="M43.5666 66.1043L43.0417 67.5095C43.8148 67.7982 44.676 67.4082 44.9689 66.6367L43.5666 66.1043ZM60.0505 66.1671L58.6465 66.6952C58.9361 67.4651 59.7917 67.8581 60.5645 67.5762L60.0505 66.1671ZM54.6997 51.9419L54.211 50.5237C53.828 50.6557 53.5147 50.937 53.3423 51.3035C53.1699 51.6701 53.1531 52.0908 53.2957 52.47L54.6997 51.9419ZM48.9601 51.8969L50.3625 52.4293C50.5051 52.0536 50.491 51.6365 50.3235 51.2714C50.1559 50.9062 49.8489 50.6235 49.4712 50.4866L48.9601 51.8969ZM26.5928 43.8008C26.5928 54.6624 33.4363 63.9218 43.0417 67.5095L44.0914 64.6991C35.6206 61.5352 29.5928 53.37 29.5928 43.8008H26.5928ZM51.8936 18.5C37.9203 18.5 26.5928 29.8275 26.5928 43.8008H29.5928C29.5928 31.4844 39.5772 21.5 51.8936 21.5V18.5ZM77.1944 43.8008C77.1944 29.8275 65.8668 18.5 51.8936 18.5V21.5C64.2099 21.5 74.1944 31.4844 74.1944 43.8008H77.1944ZM60.5645 67.5762C70.2649 64.0376 77.1944 54.7304 77.1944 43.8008H74.1944C74.1944 53.43 68.0907 61.6374 59.5364 64.7579L60.5645 67.5762ZM53.2957 52.47L58.6465 66.6952L61.4544 65.639L56.1037 51.4138L53.2957 52.47ZM55.1884 53.36C59.1517 51.9942 62.0024 48.2323 62.0024 43.8008H59.0024C59.0024 46.9132 57.0012 49.5621 54.211 50.5237L55.1884 53.36ZM62.0024 43.8008C62.0024 38.2179 57.4765 33.692 51.8936 33.692V36.692C55.8196 36.692 59.0024 39.8747 59.0024 43.8008H62.0024ZM51.8936 33.692C46.3106 33.692 41.7848 38.2179 41.7848 43.8008H44.7848C44.7848 39.8747 47.9675 36.692 51.8936 36.692V33.692ZM41.7848 43.8008C41.7848 48.1765 44.5642 51.8992 48.449 53.3071L49.4712 50.4866C46.7356 49.4952 44.7848 46.8739 44.7848 43.8008H41.7848ZM44.9689 66.6367L50.3625 52.4293L47.5578 51.3645L42.1642 65.5719L44.9689 66.6367Z" fill="#0D5B00"/>
<defs>
<filter id="filter0_f" x="0" y="3" width="104" height="104" filterUnits="userSpaceOnUse" color-interpolation-filters="sRGB">
<feFlood flood-opacity="0" result="BackgroundImageFix"/>
<feBlend mode="normal" in="SourceGraphic" in2="BackgroundImageFix" result="shape"/>
<feGaussianBlur stdDeviation="8" result="effect1_foregroundBlur"/>
</filter>
</defs>
</svg>

<svg xmlns="http://www.w3.org/2000/svg" width="104" height="107" fill="none" viewBox="0 0 104 107"><g filter="url(#filter0_f)"><circle cx="52" cy="55" r="36" fill="#8EAEDE" fill-opacity=".3"/></g><circle cx="52" cy="43" r="43" fill="#fff"/><path fill="#89DD7C" fill-rule="evenodd" d="M43.57 66.1a23.81 23.81 0 1 1 16.48.07L54.7 51.94a8.61 8.61 0 1 0-5.74-.04l-5.4 14.2Z" clip-rule="evenodd"/><path fill="#0D5B00" d="m43.57 66.1-.53 1.41a1.5 1.5 0 0 0 1.93-.87l-1.4-.54Zm16.48.07-1.4.53a1.5 1.5 0 0 0 1.91.88l-.51-1.41ZM54.7 51.94l-.49-1.42a1.5 1.5 0 0 0-.91 1.95l1.4-.53Zm-5.74-.04 1.4.53a1.5 1.5 0 0 0-.89-1.94l-.51 1.4Zm-22.37-8.1a25.31 25.31 0 0 0 16.45 23.71l1.05-2.81a22.31 22.31 0 0 1-14.5-20.9h-3Zm25.3-25.3a25.3 25.3 0 0 0-25.3 25.3h3a22.3 22.3 0 0 1 22.3-22.3v-3Zm25.3 25.3a25.3 25.3 0 0 0-25.3-25.3v3a22.3 22.3 0 0 1 22.3 22.3h3ZM60.56 67.58A25.31 25.31 0 0 0 77.2 43.8h-3c0 9.63-6.1 17.84-14.65 20.96l1.02 2.82ZM53.3 52.47l5.35 14.23 2.8-1.06L56.1 51.4l-2.8 1.06Zm1.89.89A10.11 10.11 0 0 0 62 43.8h-3c0 3.11-2 5.76-4.79 6.72l.98 2.84ZM62 43.8a10.1 10.1 0 0 0-10.1-10.1v3a7.1 7.1 0 0 1 7.1 7.1h3ZM51.9 33.7a10.1 10.1 0 0 0-10.12 10.1h3a7.1 7.1 0 0 1 7.11-7.1v-3ZM41.77 43.8c0 4.38 2.78 8.1 6.67 9.5l1.02-2.81a7.11 7.11 0 0 1-4.69-6.69h-3Zm3.19 22.84 5.4-14.21-2.81-1.07-5.4 14.21 2.8 1.07Z"/><defs><filter id="filter0_f" width="104" height="104" x="0" y="3" color-interpolation-filters="sRGB" filterUnits="userSpaceOnUse"><feFlood flood-opacity="0" result="BackgroundImageFix"/><feBlend in="SourceGraphic" in2="BackgroundImageFix" result="shape"/><feGaussianBlur result="effect1_foregroundBlur" stdDeviation="8"/></filter></defs></svg>
